!!!COM: des Prez, Josquin
!!!CDT: ~1450-1521/08/27
!!!COA2: Tinctoris, Johannes
!!!OPR: Missa L'ami Baudichon
!!!ONM: 3
!!!OTL: Credo
!!!AGN: Mass; Credo
!!!SCT: NJE 5.1
!!!SCA: New Josquin Edition 5.1
!!!voices: 4
!!!voices-OPR: 4
**kern	**text	**kern	**text	**kern	**text	**kern	**text
*staff4	*	*staff3	*	*staff2	*	*staff1	*
*Ivox	*	*Ivox	*	*Ivox	*	*Ivox	*
*I"Bassus	*	*I"Tenor	*	*I"Altus	*	*I"Superius	*
*I'B	*	*I'T	*	*I'A	*	*I'S	*
*>A	*	*>A	*	*>A	*	*>A	*
*clefF4	*	*clefGv2	*	*clefGv2	*	*clefG2	*
*k[]	*	*k[]	*	*k[]	*	*k[]	*
*	*	*rscale:1/2	*	*	*	*	*
*M3/1	*	*M9/1	*	*M3/1	*	*M3/1	*
*met(O)	*	*met(O.)	*	*met(O)	*	*met(O)	*
!!primary-mensuration: met(O)
=1-	=1-	=1-	=1-	=1-	=1-	=1-	=1-
!	!	!LO:TX:Z=6:t=T&colon; Qui se humiliat exaltabitur et qui se exaltat humiliabitur	!	!	!	!	!
!	!	!LO:TX:Y=24:t=T&colon; He who exalts himself will be humbled, and he who humbles himself will be exalted. [inversion]	!	!	!	!	!
!	!	!	!	!	!	!LO:TX:Z=6:t=T text based loosely on Verona 761, where the French words appear sporadically throughout the mass	!
!	!	!LO:N:vis:0.	!	!	!	!	!
0.r	.	0.r	.	0c	Pa-	0cc	Pa-
.	.	.	.	2e\	-trem	1cc	-trem
.	.	.	.	2f\	.	.	.
=2	=2	=2-	=2	=2	=2	=2	=2
0.r	.	0.ryy	.	1g	om-	1b	om-
.	.	.	.	1.f	-ni-	1.a	-ni-
.	.	.	.	2e\	.	2g/	.
=3	=3	=3-	=3	=3	=3	=3	=3
0.r	.	0.ryy	.	1e	-po-	1g	-po-
.	.	.	.	2d\	.	1.f	-ten-
.	.	.	.	2.d\	-ten-	.	.
.	.	.	.	4c\	.	.	.
.	.	.	.	2A/	.	2e/	.
=4	=4	=4	=4	=4	=4	=4	=4
!	!	!LO:N:vis:0.	!	!	!	!	!
0.r	.	0.r	.	2G/	.	1e	.
.	.	.	.	2c\	.	.	.
.	.	.	.	2d\	.	1.d	.
.	.	.	.	1B	.	.	.
.	.	.	.	2A/	.	2c/	.
=5	=5	=5-	=5	=5	=5	=5	=5
0.r	.	0.ryy	.	0.c	-tem,	0c	-tem,
.	.	.	.	.	.	1r	.
=6	=6	=6-	=6	=6	=6	=6	=6
0.r	.	0.ryy	.	0.r	.	0c	fac-
.	.	.	.	.	.	1d	.
=7	=7	=7	=7	=7	=7	=7	=7
!	!	!LO:N:vis:0.	!	!	!	!	!
0.r	.	0.r	.	0c	fac-	0e	-to-
.	.	.	.	1d	.	1f	-rem
=8	=8	=8-	=8	=8	=8	=8	=8
0.r	.	0.ryy	.	0e	-to-	2.g/	ce-
.	.	.	.	.	.	4a/	.
.	.	.	.	.	.	2b\	.
.	.	.	.	.	.	1cc	.
.	.	.	.	1f	-rem	.	.
.	.	.	.	.	.	4b\	.
.	.	.	.	.	.	4a/	.
=9	=9	=9-	=9	=9	=9	=9	=9
0.r	.	0.ryy	.	0g	ce-	1b	-li
.	.	.	.	.	.	1.ee	et
.	.	.	.	1c	-li	.	.
.	.	.	.	.	.	2dd\	.
=10	=10	=10	=10	=10	=10	=10	=10
!	!	!LO:N:vis:0.	!	!	!	!	!
0.r	.	0.r	.	1B	et	1dd	ter-
.	.	.	.	0A	ter-	2cc\	.
.	.	.	.	.	.	1ee	.
.	.	.	.	.	.	4dd\	.
.	.	.	.	.	.	4cc\	.
=11	=11	=11-	=11	=11	=11	=11	=11
0.r	.	0.ryy	.	2.G/	.	2b\	.
.	.	.	.	.	.	1dd	.
.	.	.	.	4A/	.	.	.
.	.	.	.	2B\	.	.	.
.	.	.	.	2c\	.	4cc\	.
.	.	.	.	.	.	4b\	.
.	.	.	.	2d\	.	2a/	.
.	.	.	.	2e\	.	2g/	.
=12	=12	=12-	=12	=12	=12	=12	=12
0.r	.	0.ryy	.	2f\	.	2a/	.
.	.	.	.	2g\	.	1g	.
.	.	.	.	1c	.	.	.
.	.	.	.	.	.	1cc	.
.	.	.	.	1d	.	.	.
.	.	.	.	.	.	2b\	.
=13	=13	=13	=13	=13	=13	=13	=13
!	!	!LO:N:vis:0.	!	!	!	!	!
0.C	-re,	0.r	.	0.c	-re...	1cc	-re,
.	.	.	.	.	.	1r	.
.	.	.	.	.	.	1cc	vi-
=14	=14	=14-	=14	=14	=14	=14	=14
1r	.	0.ryy	.	0.r	.	1cc	-si-
1r	.	.	.	.	.	2b\	-bi-
.	.	.	.	.	.	1cc	-li-
1c	vi-	.	.	.	.	.	.
.	.	.	.	.	.	4b\	.
.	.	.	.	.	.	4a/	.
=15	=15	=15-	=15	=15	=15	=15	=15
1c	-si-	0.ryy	.	0.r	.	1g	-um
2B\	-bi-	.	.	.	.	2r	.
1c	-li-	.	.	.	.	2c/	om-
.	.	.	.	.	.	2e/	.
4B\	.	.	.	.	.	2f/	.
4A\	.	.	.	.	.	.	.
=16	=16	=16	=16	=16	=16	=16	=16
!	!	!LO:N:vis:0.	!	!	!	!	!
1G	-um	0.r	.	0.r	.	1g	.
2r	.	.	.	.	.	2f/	.
2C/	om-	.	.	.	.	1g	.
2E\	.	.	.	.	.	.	.
2F\	-ni-	.	.	.	.	4f/	.
.	.	.	.	.	.	4e/	.
=17	=17	=17-	=17	=17	=17	=17	=17
1G	-um	0.ryy	.	0.r	.	2d/	.
.	.	.	.	.	.	2g/	.
2F\	et	.	.	.	.	2a/	.
1G	in-	.	.	.	.	2b\	-ni-
.	.	.	.	.	.	1g	-um
2E\	-vi-	.	.	.	.	.	.
=18	=18	=18-	=18	=18	=18	=18	=18
2F\	-si-	0.ryy	.	0.r	.	1r	.
1G	-bi-	.	.	.	.	.	.
.	.	.	.	.	.	1e	et
2C/	.	.	.	.	.	.	.
2D\	.	.	.	.	.	2f/	in-
2E\	-li-	.	.	.	.	[2g/	-vi-
=19	=19	=19	=19	=19	=19	=19	=19
!	!	!LO:N:vis:0.	!	!	!	!	!
1C	-um.	0.r	.	1e	et	4g/]	.
.	.	.	.	.	.	4f/	.
.	.	.	.	.	.	2e/	-si-
1r	.	.	.	2f\	in-	2d/	-bi-
.	.	.	.	2.g\	-vi-	2e/	-li-
1r	.	.	.	.	.	1c	-um.
.	.	.	.	4f\	.	.	.
.	.	.	.	2e\	-si-	.	.
=20	=20	=20-	=20	=20	=20	=20	=20
0.r	.	0.ryy	.	2d\	-bi-	1r	.
.	.	.	.	2e\	-li-	.	.
.	.	.	.	1c	-um.	1e	Et
.	.	.	.	1r	.	2f/	in
.	.	.	.	.	.	[2g/	u-
=21	=21	=21-	=21	=21	=21	=21	=21
0.r	.	0.ryy	.	1e	Et	2g/]	.
.	.	.	.	.	.	2c/	-num
.	.	.	.	2f\	in	2d/	do-
.	.	.	.	1g	u-	2e/	-mi-
.	.	.	.	.	.	1c	-num
.	.	.	.	2c\	-num	.	.
=22	=22	=22	=22	=22	=22	=22	=22
!	!	!LO:N:vis:0.	!	!	!	!	!
0.r	.	0.r	.	2d\	do-	2r	.
.	.	.	.	2e\	-mi-	1g	Je-
.	.	.	.	1c	-num	.	.
.	.	.	.	.	.	2g/	-sum
.	.	.	.	2r	.	2a/	Chri-
.	.	.	.	[2g\	Je-	2b\	.
=23	=23	=23-	=23	=23	=23	=23	=23
0.r	.	0.ryy	.	2g\]	.	1g	-stum,
.	.	.	.	2e\	-sum	.	.
.	.	.	.	2f\	Chri-	1dd	fi-
.	.	.	.	2g\	.	.	.
.	.	.	.	2e\	.	1cc	-li-
.	.	.	.	2c\	.	.	.
=24	=24	=24-	=24	=24	=24	=24	=24
0.r	.	0.ryy	.	2d\	-stum	1b	-um
.	.	.	.	2.e\	fi-	.	.
.	.	.	.	.	.	1ee	de-
.	.	.	.	4d\	.	.	.
.	.	.	.	2c\	.	.	.
.	.	.	.	2B\	-li-	1dd	.
.	.	.	.	2G/	-um	.	.
=25	=25	=25	=25	=25	=25	=25	=25
!	!	!LO:N:vis:0.	!	!	!	!	!
0.r	.	0.r	.	2A/	de-	2cc\	-i
.	.	.	.	2B\	.	1dd	u-
.	.	.	.	1G	-i	.	.
.	.	.	.	.	.	2b\	.
.	.	.	.	2r	.	2cc\	.
.	.	.	.	[2g\	u-	2dd\	-ni-
=26	=26	=26-	=26	=26	=26	=26	=26
0.r	.	0.ryy	.	4g\]	.	1b	-ge-
.	.	.	.	4f\	.	.	.
.	.	.	.	2.e\	.	.	.
.	.	.	.	.	.	1ee	.
.	.	.	.	4d\	.	.	.
.	.	.	.	2c\	-ni-	.	.
.	.	.	.	2B\	-ge-	1dd	.
.	.	.	.	2d\	.	.	.
=27	=27	=27-	=27	=27	=27	=27	=27
0.r	.	0.ryy	.	2e\	.	2cc\	.
.	.	.	.	2.f\	.	2.dd\	.
.	.	.	.	4e\	.	4cc\	.
.	.	.	.	4d\	.	4b\	.
.	.	.	.	4c\	.	4a/	.
.	.	.	.	1d	-ni-	1b	-ni-
=28	=28	=28	=28	=28	=28	=28	=28
!	!	!LO:N:vis=0.	!	!	!	!	!
1r	.	[y0.e	L'a-	0c	-tum.	0.cc	-tum.
1r	.	.	.	.	.	.	.
1c	Et	.	.	1c	Et	.	.
=29	=29	=29-	=29	=29	=29	=29	=29
1.c	ex	0.e]yy	.	1g	ex	0.r	.
.	.	.	.	1e	pa-	.	.
2B\	.	.	.	.	.	.	.
1A	.	.	.	1c	-tre	.	.
=30	=30	=30-	=30	=30	=30	=30	=30
2G\	pa-	0.e	-mi	2B\	na-	1r	.
1A	.	.	.	1c	.	.	.
.	.	.	.	.	.	1r	.
4G\	.	.	.	4B\	.	.	.
4F\	.	.	.	4A/	.	.	.
1E	-tre	.	.	1G	.	1g	Et
=31	=31	=31	=31	=31	=31	=31	=31
!	!	!LO:N:vis=0.	!	!	!	!	!
0D	na-	[y0.f	Bau-	0.d	-tum	0a	ex
1D	-tum	.	.	.	.	1a	pa-
=32	=32	=32-	=32	=32	=32	=32	=32
0d	an-	0.f]yy	.	1r	.	1.a	-tre
.	.	.	.	1r	.	.	.
.	.	.	.	.	.	4b\	.
.	.	.	.	.	.	4cc\	.
[1B	.	.	.	1d	an-	[1dd	.
=33	=33	=33-	=33	=33	=33	=33	=33
1B]	.	0.f	-di-	2d\	-te	1dd]	.
.	.	.	.	1f	.	.	.
0A	.	.	.	.	.	2cc\	.
.	.	.	.	4e\	.	1cc	na-
.	.	.	.	4d\	.	.	.
.	.	.	.	1c	.	.	.
.	.	.	.	.	.	4b\	.
.	.	.	.	.	.	4a/	.
=34	=34	=34	=34	=34	=34	=34	=34
!	!	!LO:N:vis=0.	!	!	!	!	!
[0.G	-te	[y0.g	-chon,	2r	.	0b	-tum
.	.	.	.	1d	om-	.	.
.	.	.	.	2G/	.	.	.
.	.	.	.	2d\	.	1b	an-
.	.	.	.	2e\	.	.	.
=35	=35	=35-	=35	=35	=35	=35	=35
0G]	.	0.g]yy	.	2d\	.	1.b	-te
.	.	.	.	2.g\	.	.	.
.	.	.	.	4f\	.	.	.
.	.	.	.	2e\	.	2cc\	.
1G	om-	.	.	1d	-ni-	1dd	.
=36	=36	=36-	=36	=36	=36	=36	=36
1.c	-ni-	0.g	ma-	1c	-a	1ee	om-
.	.	.	.	1r	.	2ee\	-ni-
1.B	.	.	.	.	.	2.dd\	-a
.	.	.	.	1G	se-	.	.
.	.	.	.	.	.	4cc\	.
.	.	.	.	.	.	4b\	.
.	.	.	.	.	.	4a/	.
=37	=37	=37	=37	=37	=37	=37	=37
1.c	-a	[y0.g	-da-	1e	.	1g	.
.	.	.	.	2c\	.	1r	.
1.G	.	.	.	2e\	.	.	.
.	.	.	.	1d	-cu-	1dd	se-
=38	=38	=38-	=38	=38	=38	=38	=38
!	!	!LO:N:vis=0.	!	!	!	!	!
1.c	se-	0.g]yy	.	1c	-la,	2ee\	.
.	.	.	.	.	.	2cc\	.
.	.	.	.	1r	.	2ee\	.
1.B	.	.	.	.	.	1dd	.
.	.	.	.	1G	se-	.	.
.	.	.	.	.	.	[2gg\	.
=39	=39	=39-	=39	=39	=39	=39	=39
1.c	-cu-	0.g	me,	2e\	.	4gg\]	.
.	.	.	.	.	.	4ff\	.
.	.	.	.	2c\	.	1ee	.
.	.	.	.	1e	.	.	.
1.G	.	.	.	.	.	4dd\	.
.	.	.	.	.	.	4cc\	.
.	.	.	.	1d	-cu-	2.b\	-cu-
.	.	.	.	.	.	4a/	.
=40	=40	=40	=40	=40	=40	=40	=40
!	!	!LO:N:vis=0.	!	!	!	!	!
[0.C	-la.	[y0.e	L'a-	0.c	-la.	0cc	-la.
.	.	.	.	.	.	1r	.
=41	=41	=41-	=41	=41	=41	=41	=41
0.C]	.	0.e]yy	.	1r	.	1g	De-
.	.	.	.	1r	.	2g/	-um
.	.	.	.	.	.	2g/	de
.	.	.	.	1g	De-	2.e/	de-
.	.	.	.	.	.	4c/	.
=42	=42	=42-	=42	=42	=42	=42	=42
0.r	.	0.e	-mi	2g\	-um	1c	-o,
.	.	.	.	2g\	de	.	.
.	.	.	.	2.e\	de-	1r	.
.	.	.	.	4c\	.	.	.
.	.	.	.	1c	-o,	1g	lu-
=43	=43	=43	=43	=43	=43	=43	=43
!	!	!LO:N:vis=0.	!	!	!	!	!
0.r	.	[y0.f	Bau-	1.d	lu-	2f/	-men
.	.	.	.	.	.	1a	.
.	.	.	.	4c\	-men	2b\	de
.	.	.	.	4B\	.	.	.
.	.	.	.	2A/	de	2cc\	lu-
.	.	.	.	[2B-\	lu-	[2dd\	.
=44	=44	=44-	=44	=44	=44	=44	=44
0.r	.	0.f]yy	.	2B-\]	.	2dd\]	.
.	.	.	.	4A/	-mi-	4cc\	-mi-
.	.	.	.	4G/	.	4b\	.
.	.	.	.	2.F/	-ne,	1a	-ne,
.	.	.	.	4G/	.	.	.
.	.	.	.	2A/	.	2r	.
.	.	.	.	[2B-i\	de-	[2d/	de-
=45	=45	=45-	=45	=45	=45	=45	=45
0.r	.	0.f	-di-	4B-\]	.	4d/]	.
.	.	.	.	4c\	.	4e/	.
.	.	.	.	1d	-um	4f/	.
.	.	.	.	.	.	4g/	.
.	.	.	.	.	.	2.a/	-um
.	.	.	.	4c\	ve-	.	.
.	.	.	.	4Bni\	.	4b\	.
.	.	.	.	1A	-rum	2.cc\	ve-
.	.	.	.	.	.	4dd\	.
=46	=46	=46	=46	=46	=46	=46	=46
!	!	!LO:N:vis=0.	!	!	!	!	!
0G	De-	[y0.g	-chon,	2r	.	0.b	-rum...
.	.	.	.	2G/	de	.	.
.	.	.	.	2B\	de-	.	.
.	.	.	.	2c\	.	.	.
1G	-um	.	.	1d	.	.	.
=47	=47	=47-	=47	=47	=47	=47	=47
1E	ve-	0.g]yy	.	2e\	-o	0.r	.
.	.	.	.	2.g\	ve-	.	.
0C	-rum	.	.	.	.	.	.
.	.	.	.	4f\	.	.	.
.	.	.	.	2.e\	.	.	.
.	.	.	.	4d\	.	.	.
.	.	.	.	2c\	.	.	.
=48	=48	=48-	=48	=48	=48	=48	=48
1G	de	0.r	.	2B\	.	0.r	.
.	.	.	.	2e\	.	.	.
2F\	de-	.	.	4d\	.	.	.
.	.	.	.	4c\	.	.	.
2E\	-o	.	.	1c	.	.	.
1D	ve-	.	.	.	.	.	.
.	.	.	.	2B\	.	.	.
=49	=49	=49	=49	=49	=49	=49	=49
!	!	!LO:N:vis=0.	!	!	!	!	!
[0.C	-ro...	[y0.c	Plu-	0c	-ro.	1g	Ge-
.	.	.	.	.	.	2a/	-ni-
.	.	.	.	.	.	1cc	-tum,
.	.	.	.	1r	.	.	.
.	.	.	.	.	.	2b\	non
=50	=50	=50-	=50	=50	=50	=50	=50
0.C]	.	0.c]yy	.	1.e	Ge-	2g/	fac-
.	.	.	.	.	.	1a	.
.	.	.	.	2f\	-ni-	4g/	.
.	.	.	.	.	.	4f/	.
.	.	.	.	1g	-tum	1e	-tum,
=51	=51	=51-	=51	=51	=51	=51	=51
1.c	con-	0.c	-mez	2.c\	non	2r	.
.	.	.	.	.	.	1ee	con-
.	.	.	.	4d\	.	.	.
.	.	.	.	4e\	.	.	.
.	.	.	.	4f\	.	.	.
2B\	-sub	.	.	1g	fac-	2dd\	-sub-
1A	-stan-	.	.	.	.	1cc	-stan-
.	.	.	.	2f#i\	.	.	.
=52	=52	=52	=52	=52	=52	=52	=52
!	!	!LO:N:vis=0.	!	!	!	!	!
0G	.	[y0.d	vos-	1g	-tum,	2b\	-ti-
.	.	.	.	.	.	1dd	-a-
.	.	.	.	1G	con-	.	.
.	.	.	.	.	.	4cc\	.
.	.	.	.	.	.	4b\	.
1F	-ti-	.	.	1A	-sub-	1a	.
=53	=53	=53-	=53	=53	=53	=53	=53
1.G	-a-	0.d]yy	.	2.B\	-stan-	1g	-lem
.	.	.	.	4c\	-ti-	.	.
.	.	.	.	2.d\	-a-	1r	.
1.D	.	.	.	.	.	.	.
.	.	.	.	4c\	.	.	.
.	.	.	.	1A	.	1a	pa-
=54	=54	=54-	=54	=54	=54	=54	=54
1.G	.	0.d	-tre	1G	-lem	2.b\	.
.	.	.	.	.	.	4cc\	.
.	.	.	.	1r	.	2.dd\	.
1.F	.	.	.	.	.	.	.
.	.	.	.	.	.	4cc\	.
.	.	.	.	1A	pa-	1a	.
=55	=55	=55	=55	=55	=55	=55	=55
!	!	!LO:N:vis=0.	!	!	!	!	!
0E	.	[y0.e	con,	0B	-tri,	0.g	-tri,
1E	-lem	.	.	1r	.	.	.
=56	=56	=56-	=56	=56	=56	=56	=56
0C	pa-	0.e]yy	.	2.c\	per	0.r	.
.	.	.	.	4B\	.	.	.
.	.	.	.	2A/	.	.	.
.	.	.	.	2G/	quem	.	.
1C	-tri,	.	.	2.c\	om-	.	.
.	.	.	.	4B\	.	.	.
=57	=57	=57-	=57	=57	=57	=57	=57
2.c\	per	0.e	ma-	2A/	.	1r	.
.	.	.	.	2G/	-ni-	.	.
4B\	.	.	.	.	.	.	.
2A\	.	.	.	2A/	-a	2.cc\	per
2G\	quem	.	.	2E/	.	.	.
.	.	.	.	.	.	4b\	.
2.c\	om-	.	.	1r	.	2a/	.
.	.	.	.	.	.	2g/	quem
4B\	.	.	.	.	.	.	.
=58	=58	=58	=58	=58	=58	=58	=58
!	!	!LO:N:vis=0.	!	!	!	!	!
2A\	.	[y0.e	-da-	1r	.	2.cc\	om-
2G\	-ni-	.	.	.	.	.	.
.	.	.	.	.	.	4b\	.
2A\	-a	.	.	1c	fac-	2a/	.
2E\	.	.	.	.	.	2g/	-ni-
1r	.	.	.	2A/	.	2a/	-a
.	.	.	.	[2c\	.	2e/	.
=59	=59	=59-	=59	=59	=59	=59	=59
2.C/	fac-	0.e]yy	.	2c\]	.	2r	.
.	.	.	.	4B\	.	2e/	fac-
4D\	.	.	.	4A/	.	.	.
2.E\	.	.	.	2G/	.	2.g/	.
.	.	.	.	2c\	.	.	.
4F\	.	.	.	.	.	4a/	.
2G\	.	.	.	2B\	.	2b\	.
2A\	.	.	.	2A/	.	2cc\	.
=60	=60	=60-	=60	=60	=60	=60	=60
2E\	.	0.e	-me,	1.e	.	2b\	.
2A\	.	.	.	.	.	2.cc\	.
2G\	.	.	.	.	.	.	.
.	.	.	.	.	.	4b\	.
2A\	-ta	.	.	2c\	-ta	1a	.
1E	sunt.	.	.	1B	sunt.	.	.
.	.	.	.	.	.	2g#i/	-ta
=61	=61	=61	=61	=61	=61	=61	=61
!	!	!LO:N:vis=0.	!	!	!	!	!
2r	.	[y0.c	plu-	1A	Qui	1a	sunt.
1F	Qui	.	.	.	.	.	.
.	.	.	.	2F/	prop-	1r	.
2C/	.	.	.	2G/	-ter	.	.
2.F\	prop-	.	.	1A	nos	1a	Qui
4G\	.	.	.	.	.	.	.
=62	=62	=62-	=62	=62	=62	=62	=62
1A	-ter	0.c]yy	.	2r	.	2a/	prop-
.	.	.	.	2F/	ho-	2.cc\	.
2r	.	.	.	2.A/	-mi-	.	.
.	.	.	.	.	.	4b\	.
2F\	nos	.	.	.	.	1a	.
.	.	.	.	4B\	.	.	.
2.A\	ho-	.	.	1c	-nes,	.	.
.	.	.	.	.	.	4g/	-ter
4B\	.	.	.	.	.	4f/	.
=63	=63	=63-	=63	=63	=63	=63	=63
2c\	.	0.c	-mez	1r	.	2e/	nos
1A	.	.	.	.	.	1cc	ho-
.	.	.	.	1F	ho-	.	.
4G\	.	.	.	.	.	4b\	.
4F\	.	.	.	.	.	4a/	.
1E	-mi-	.	.	1G	-mi-	1g	.
=64	=64	=64	=64	=64	=64	=64	=64
!	!	!LO:N:vis=0.	!	!	!	!	!
[0.D	-nes,	[y0.d	vos-	0A	-nes,	2f/	.
.	.	.	.	.	.	2d/	.
.	.	.	.	.	.	2.f/	-mi-
.	.	.	.	.	.	4g/	.
.	.	.	.	2r	.	1a	.
.	.	.	.	2d\	et	.	.
=65	=65	=65-	=65	=65	=65	=65	=65
0.D]	.	0.d]yy	.	2f\	prop-	1d	-nes,
.	.	.	.	2d\	.	.	.
.	.	.	.	2.f\	.	2r	.
.	.	.	.	.	.	2d/	et
.	.	.	.	4g\	.	.	.
.	.	.	.	1a	.	2f/	prop-
.	.	.	.	.	.	2g/	.
=66	=66	=66-	=66	=66	=66	=66	=66
1r	.	0.d	-tre	2d\	-ter	1a	.
.	.	.	.	2.a\	nos-	.	.
1r	.	.	.	.	.	2f/	-ter
.	.	.	.	4g\	.	.	.
.	.	.	.	1f	.	1a	nos-
1D	et	.	.	.	.	.	.
.	.	.	.	4e\	.	2b\	.
.	.	.	.	4d\	.	.	.
=67	=67	=67	=67	=67	=67	=67	=67
!	!	!LO:N:vis=0.	!	!	!	!	!
0A	prop-	[y0.e	con,	1.c	-tram	1cc	.
.	.	.	.	.	.	2a/	.
.	.	.	.	2A/	sa-	1cc	.
1A	-ter	.	.	2.c\	-lu-	.	.
.	.	.	.	.	.	4b\	.
.	.	.	.	4d\	.	4a/	.
=68	=68	=68-	=68	=68	=68	=68	=68
0c	nos-	0.e]yy	.	2.e\	.	1g	-tram
.	.	.	.	4f\	.	.	.
.	.	.	.	1g	-tem,	2r	.
.	.	.	.	.	.	2c/	sa-
1c	-tram	.	.	2c\	sa-	2.e/	-lu-
.	.	.	.	[2g\	lu-	.	.
.	.	.	.	.	.	4f/	.
=69	=69	=69-	=69	=69	=69	=69	=69
2.C/	sa-	0.r	.	4g\]	.	1.g	.
.	.	.	.	4f\	.	.	.
.	.	.	.	2.e	.	.	.
4D\	.	.	.	.	.	.	.
2.E\	-lu-	.	.	.	.	.	.
.	.	.	.	4d\	.	.	.
.	.	.	.	2c\	.	4f/	.
4F\	.	.	.	.	.	4e/	.
1G	-tem,	.	.	1B	-tem,	1d	-tem,
=70	=70	=70	=70	=70	=70	=70	=70
!	!	!LO:N:vis:0.	!	!	!	!	!
0.r	.	0.r	.	1e	de-	2.g/	de-
.	.	.	.	.	.	4a/	.
.	.	.	.	2d\	-scen-	2b\	.
.	.	.	.	2c\	.	2.cc\	-scen-
.	.	.	.	2e\	.	.	.
.	.	.	.	.	.	4b\	.
.	.	.	.	2f\	.	2a/	.
=71	=71	=71-	=71	=71	=71	=71	=71
0.r	.	0.ryy	.	2.g\	.	2g/	.
.	.	.	.	.	.	2b\	.
.	.	.	.	4f\	.	.	.
.	.	.	.	4e\	.	2cc\	.
.	.	.	.	4d\	.	.	.
.	.	.	.	2.f\	-dit	1dd	-dit
.	.	.	.	4e\	.	.	.
.	.	.	.	2d\	de	2ff\	de
=72	=72	=72-	=72	=72	=72	=72	=72
2r	.	0.ryy	.	2c\	ce-	2ee\	ce-
2G\	de	.	.	2B\	.	2.dd\	.
1A	ce-	.	.	1c	.	.	.
.	.	.	.	.	.	4cc\	.
.	.	.	.	.	.	1cc	.
1G	.	.	.	1d	.	.	.
.	.	.	.	.	.	2b\	.
=73	=73	=73	=73	=73	=73	=73	=73
*	*	*rscale:1	*	*	*	*	*
0.Cl	-lis.	0.el	-lis.	0.cl	-lis.	0.ccl	-lis.
!!LO:LB:i:g=z
=74||	=74||	=74||	=74||	=74||	=74||	=74||	=74||
*>B	*	*>B	*	*>B	*	*>B	*
*clefF4	*	*clefGv2	*	*clefGv2	*	*clefG2	*
*k[]	*	*k[]	*	*k[]	*	*k[]	*
*M2/1	*	*M2/1	*	*M2/1	*	*M2/1	*
*met(C|)	*	*met(C|)	*	*met(C|)	*	*met(C|)	*
!!!OMD: Et incarnatus est
!!section: Et incarnatus est
!	!	!	!	!LO:TX:Y=18:t=T canon&colon; Sicut mutus non aperiens os suum	!	!	!
0r	.	0r	.	0c	Et	0cc	Et
=75	=75	=75	=75	=75	=75	=75	=75
0r	.	0r	.	1G	in-	1b	in-
.	.	.	.	1A	-car-	1cc	-car-
=76	=76	=76	=76	=76	=76	=76	=76
0r	.	0r	.	1B	-na-	1.dd	-na-
.	.	.	.	1G	.	.	.
.	.	.	.	.	.	2cc\	.
=77	=77	=77	=77	=77	=77	=77	=77
0r	.	0r	.	2A/	.	1a	-tus
.	.	.	.	1c	.	.	.
.	.	.	.	.	.	[1g	est
.	.	.	.	2B\	-tus	.	.
=78	=78	=78	=78	=78	=78	=78	=78
0r	.	0r	.	0c	est	1g]	.
.	.	.	.	.	.	1e	de
=79	=79	=79	=79	=79	=79	=79	=79
0r	.	0r	.	0r	.	1f	spi-
.	.	.	.	.	.	1g	.
=80	=80	=80	=80	=80	=80	=80	=80
0r	.	0r	.	[0e	de	1c	.
.	.	.	.	.	.	[1g	.
=81	=81	=81	=81	=81	=81	=81	=81
0r	.	0r	.	0e]	.	2g/]	.
.	.	.	.	.	.	2a/	.
.	.	.	.	.	.	2b\	.
.	.	.	.	.	.	[2cc\	.
=82	=82	=82	=82	=82	=82	=82	=82
0r	.	0r	.	0f	spi-	4cc\]	.
.	.	.	.	.	.	4b\	.
.	.	.	.	.	.	4a/	.
.	.	.	.	.	.	4g/	.
.	.	.	.	.	.	1a	.
=83	=83	=83	=83	=83	=83	=83	=83
0r	.	0r	.	1g	-ri-	1b-	-ri-
.	.	.	.	2f\	-ri-	2a/	-tu
.	.	.	.	[2e\	-tu	[2g/	sanc-
=84	=84	=84	=84	=84	=84	=84	=84
0r	.	0r	.	2e\]	.	2g/]	.
.	.	.	.	4d\	.	4f/	.
.	.	.	.	4c\	.	4e/	.
.	.	.	.	2d\	.	2f/	.
.	.	.	.	[2e\	.	[2g/	.
=85	=85	=85	=85	=85	=85	=85	=85
0r	.	0r	.	2e\]	.	2g/]	.
.	.	.	.	4d\	.	4f/	.
.	.	.	.	4c\	.	4e/	.
.	.	.	.	2.B\	.	1d	.
.	.	.	.	4A/	.	.	.
=86	=86	=86	=86	=86	=86	=86	=86
0r	.	0r	.	[0c	-to	1c	-to
.	.	.	.	.	.	1r	.
=87	=87	=87	=87	=87	=87	=87	=87
0r	.	0r	.	0c]	.	1g	ex
.	.	.	.	.	.	1a	Ma-
=88	=88	=88	=88	=88	=88	=88	=88
0r	.	0r	.	1G	ex	1g	.
.	.	.	.	1A	Ma-	1cc	.
=89	=89	=89	=89	=89	=89	=89	=89
0r	.	0r	.	1G	.	2dd\	-ri-
.	.	.	.	.	.	1ee	.
.	.	.	.	1c	.	.	.
.	.	.	.	.	.	4dd\	.
.	.	.	.	.	.	4cc\	.
=90	=90	=90	=90	=90	=90	=90	=90
0r	.	0r	.	2d\	-ri-	1b	-a
.	.	.	.	1e	.	.	.
.	.	.	.	.	.	1ee	vir-
.	.	.	.	4d\	.	.	.
.	.	.	.	4c\	.	.	.
=91	=91	=91	=91	=91	=91	=91	=91
0r	.	0r	.	1B	-a	1dd	-gi-
.	.	.	.	1e	vir-	1cc	-ne
=92	=92	=92	=92	=92	=92	=92	=92
0r	.	0r	.	1d	-gi-	1ff	et
.	.	.	.	1c	-ne	2ee\	ho-
.	.	.	.	.	.	[2cc\	.
=93	=93	=93	=93	=93	=93	=93	=93
0r	.	0r	.	1f	et	2cc\]	.
.	.	.	.	.	.	1dd	.
.	.	.	.	2e\	ho-	.	.
.	.	.	.	[2c\	.	4cc\	.
.	.	.	.	.	.	4b\	.
=94	=94	=94	=94	=94	=94	=94	=94
0r	.	0r	.	2c\]	.	1a	.
.	.	.	.	1d	.	.	.
.	.	.	.	.	.	2b\	.
.	.	.	.	2c\	.	[2cc\	.
=95	=95	=95	=95	=95	=95	=95	=95
0r	.	0r	.	1A	.	2cc\]	.
.	.	.	.	.	.	4b\	.
.	.	.	.	.	.	4a/	.
.	.	.	.	2B\	.	1g	-mo
.	.	.	.	[2c\	.	.	.
=96	=96	=96	=96	=96	=96	=96	=96
0r	.	0r	.	2c\]	.	1cc	fac-
.	.	.	.	4B\	.	.	.
.	.	.	.	4A/	.	.	.
.	.	.	.	1G	-mo	2dd\	.
.	.	.	.	.	.	[2ee\	.
=97	=97	=97	=97	=97	=97	=97	=97
0r	.	0r	.	1c	fac-	4ee\]	.
.	.	.	.	.	.	4dd\	.
.	.	.	.	.	.	2ee\	.
.	.	.	.	2d\	.	2ff\	.
.	.	.	.	[2e\	.	2gg\	.
=98	=98	=98	=98	=98	=98	=98	=98
0r	.	0r	.	4e\]	.	1ee	.
.	.	.	.	4d\	.	.	.
.	.	.	.	2e\	.	.	.
.	.	.	.	2f\	.	2dd\	.
.	.	.	.	2g\	.	[2ee\	.
=99	=99	=99	=99	=99	=99	=99	=99
0r	.	0r	.	1c	.	4ee\]	.
.	.	.	.	.	.	4dd\	.
.	.	.	.	.	.	1cc	.
.	.	.	.	1d	-tus	.	.
.	.	.	.	.	.	2b\	-tus
=100	=100	=100	=100	=100	=100	=100	=100
0r	.	0r	.	0cl	est.	0ccl	est.
!!LO:LB:i:g=z
=101||	=101||	=101||	=101||	=101||	=101||	=101||	=101||
*clefF4	*	*clefGv2	*	*clefGv2	*	*clefG2	*
*k[]	*	*k[]	*	*k[]	*	*k[]	*
*M2/1	*	*M2/1	*	*M2/1	*	*M2/1	*
*met(C|)	*	*met(C|)	*	*met(C|)	*	*met(C|)	*
!!!OMD: Crucifixus
!!section: Crucifixus
1C	Cru-	0r	.	0c	Cru-	0r	.
1F	.	.	.	.	.	.	.
=102	=102	=102	=102	=102	=102	=102	=102
1E	-ci-	0r	.	1c	-ci-	0r	.
2D\	-fi-	.	.	[1d	-fi-	.	.
[2G\	.	.	.	.	.	.	.
=103	=103	=103	=103	=103	=103	=103	=103
2G\]	.	0r	.	1d]	.	0r	.
2A\	.	.	.	.	.	.	.
1B	.	.	.	1d	-xus	.	.
=104	=104	=104	=104	=104	=104	=104	=104
1c	-xus	0r	.	0e	e-	0r	.
1r	.	.	.	.	.	.	.
=105	=105	=105	=105	=105	=105	=105	=105
0C	e-	0r	.	1e	-ti-	0r	.
.	.	.	.	[1c	-am	.	.
=106	=106	=106	=106	=106	=106	=106	=106
1C	-ti-	0r	.	1c]	.	0r	.
[1F	-am	.	.	1c	pro	.	.
=107	=107	=107	=107	=107	=107	=107	=107
2F\]	.	0r	.	1.f	no-	0r	.
2G\	.	.	.	.	.	.	.
1A	pro	.	.	.	.	.	.
.	.	.	.	2e\	.	.	.
=108	=108	=108	=108	=108	=108	=108	=108
2.B-i\	no-	0r	.	1d	.	0r	.
4G\	.	.	.	.	.	.	.
2A\	.	.	.	2c\	.	.	.
[2B-i\	.	.	.	[2d\	.	.	.
=109	=109	=109	=109	=109	=109	=109	=109
2B-\]	.	0r	.	2d\]	.	0r	.
1G	.	.	.	2B\	.	.	.
.	.	.	.	1A	.	.	.
2F#i\	.	.	.	.	.	.	.
=110	=110	=110	=110	=110	=110	=110	=110
0G	-bis	0r	.	[0G	-bis	0r	.
=111	=111	=111	=111	=111	=111	=111	=111
1r	.	0r	.	0G]	.	0r	.
1G	sub	.	.	.	.	.	.
=112	=112	=112	=112	=112	=112	=112	=112
1G	Pon-	0r	.	0r	.	0r	.
1F	-ti-	.	.	.	.	.	.
=113	=113	=113	=113	=113	=113	=113	=113
1E	-o	0r	.	1r	.	0r	.
2E\	Pi-	.	.	1g	sub	.	.
[2G\	-la-	.	.	.	.	.	.
=114	=114	=114	=114	=114	=114	=114	=114
2G\]	.	0r	.	1g	Pon-	0r	.
4F\	.	.	.	.	.	.	.
4E\	.	.	.	.	.	.	.
1D	.	.	.	1f	-ti-	.	.
=115	=115	=115	=115	=115	=115	=115	=115
0C	-to,	0r	.	1e	-o	0r	.
.	.	.	.	2e\	Pi-	.	.
.	.	.	.	[2g\	-la-	.	.
=116	=116	=116	=116	=116	=116	=116	=116
1c	pas-	0r	.	2g\]	.	0r	.
.	.	.	.	4f\	.	.	.
.	.	.	.	4e\	.	.	.
1B	.	.	.	1d	.	.	.
=117	=117	=117	=117	=117	=117	=117	=117
2A\	.	0r	.	2.c\	-to,	0r	.
1c	.	.	.	.	.	.	.
.	.	.	.	4d\	.	.	.
.	.	.	.	2e\	.	.	.
2B\	.	.	.	[2d\	pas-	.	.
=118	=118	=118	=118	=118	=118	=118	=118
1G	.	0r	.	2d\]	.	0r	.
.	.	.	.	4c\	.	.	.
.	.	.	.	4B\	.	.	.
1F	.	.	.	1A	.	.	.
=119	=119	=119	=119	=119	=119	=119	=119
1.G	.	0r	.	2.G/	.	0r	.
.	.	.	.	4A/	.	.	.
.	.	.	.	2B\	.	.	.
2A\	-sus	.	.	2c\	-sus	.	.
=120	=120	=120	=120	=120	=120	=120	=120
2B\	et	0r	.	2G/	et	0r	.
2c\	se-	.	.	2c\	se-	.	.
1G	-pul-	.	.	2d\	.	.	.
.	.	.	.	[2e\	-pul-	.	.
=121	=121	=121	=121	=121	=121	=121	=121
1C	.	0r	.	4e\]	.	0r	.
.	.	.	.	4f\	.	.	.
.	.	.	.	2.g\	.	.	.
1G	.	.	.	.	.	.	.
.	.	.	.	4f\	.	.	.
.	.	.	.	4e\	.	.	.
.	.	.	.	4d\	.	.	.
=122	=122	=122	=122	=122	=122	=122	=122
1A	.	0r	.	4f\	.	0r	.
.	.	.	.	4e\	.	.	.
.	.	.	.	4d\	.	.	.
.	.	.	.	4c\	.	.	.
2G\	.	.	.	1B	.	.	.
[2G\	.	.	.	.	.	.	.
=123	=123	=123	=123	=123	=123	=123	=123
2G\]	.	0r	.	1g	.	0r	.
2E\	.	.	.	.	.	.	.
2F\	.	.	.	2f\	.	.	.
2G\	.	.	.	[2e\	.	.	.
=124	=124	=124	=124	=124	=124	=124	=124
1C	.	0r	.	2e\]	.	0r	.
.	.	.	.	4d\	.	.	.
.	.	.	.	4c\	.	.	.
1D	-tus	.	.	2.B\	-tus	.	.
.	.	.	.	4A/	.	.	.
=125	=125	=125	=125	=125	=125	=125	=125
0Cl	est.	0r	.	0cl	est.	0r	.
!!LO:LB:i:g=z
=126||	=126||	=126||	=126||	=126||	=126||	=126||	=126||
!!section: Et resurrexit
!!!OMD: Et resurrexit
*	*	*rscale:1/2	*	*	*	*	*
*M2/1	*	*M3/0	*	*M2/1	*	*M2/1	*
*met(O2)	*	*met(O)	*	*met(O2)	*	*met(O2)	*
!!primary-mensuration: met(O2)
!	!	!LO:N:vis=0	!	!	!	!	!
!	!	!LO:TX:Z=18:t=T&colon; Gradatim me sequere trina bina non pausali pertonisans in dyapsaon.	!	!	!	!	!
!	!	!LO:TX:Y=60:t=T&colon; In steps follow me in threes twice without pause sounding as far as the 8ve. At the end take the highest.	!	!	!	!	!
0C	Et	[y0g	L'a-	[0c	Et	0cc	Et
=127.	=127.	=127-	=127.	=127.	=127.	=127.	=127.
1C	re-	0g]yy	.	0c]	.	1cc	re-
1C	-sur-	.	.	.	.	1cc	-sur-
=128.	=128.	=128-	=128.	=128.	=128.	=128.	=128.
0G	-re-	0g	-mi	1d	re-	0b	-re-
.	.	.	.	1d	-sur-	.	.
=129	=129	=129	=129	=129	=129	=129	=129
!	!	!LO:N:vis=0	!	!	!	!	!
1D	-xit	[y0f	Bau-	0d	-re-	0a	-xit
1D	ter-	.	.	.	.	.	.
=130.	=130.	=130-	=130.	=130.	=130.	=130.	=130.
1F	-ti-	0f]yy	.	0A	-xit	1r	.
1F	-a	.	.	.	.	1a	ter-
=131.	=131.	=131-	=131.	=131.	=131.	=131.	=131.
0F	di-	0f	-di-	1r	.	1cc	-ti-
.	.	.	.	1A	ter-	1cc	-a
=132	=132	=132	=132	=132	=132	=132	=132
!	!	!LO:N:vis=0.	!	!	!	!	!
[0C	-e...	[y0e	-chon,	1c	-ti-	1.cc	di-
.	.	.	.	1c	-a	.	.
.	.	.	.	.	.	4b\	.
.	.	.	.	.	.	4a/	.
=133.	=133.	=133-	=133.	=133.	=133.	=133.	=133.
0C_	.	0e_yy	.	1.c	di-	0g	-e
.	.	.	.	4B\	.	.	.
.	.	.	.	4A/	.	.	.
=134.	=134.	=134-	=134.	=134.	=134.	=134.	=134.
0C]	.	0e]yy	.	1G	-e	1g	se-
.	.	.	.	2G	se-	[1g	-cun-
.	.	.	.	[2c\	-cun-	.	.
=135	=135	=135	=135	=135	=135	=135	=135
!	!	!LO:N:vis=0.	!	!	!	!	!
0r	.	0r	.	2c\]	.	1g]	.
.	.	.	.	2d\	.	.	.
.	.	.	.	1e	-dum	1g	-dum
=136.	=136.	=136-	=136.	=136.	=136.	=136.	=136.
0r	.	0ryy	.	1f	scrip-	1a	scrip-
.	.	.	.	2d\	.	2f/	.
.	.	.	.	[2e\	-tu-	[2g/	-tu-
=137.	=137.	=137-	=137.	=137.	=137.	=137.	=137.
0r	.	0ryy	.	4e\]	.	2g/]	.
.	.	.	.	4d\	.	.	.
.	.	.	.	1d	.	2f/	.
.	.	.	.	.	.	1e	.
.	.	.	.	2c#i\	.	.	.
=138	=138	=138	=138	=138	=138	=138	=138
!	!	!LO:N:vis=0	!	!	!	!	!
1r	.	[y0f	L'a-	[0d	-ras.	0d	-ras.
[1D	Et	.	.	.	.	.	.
=139.	=139.	=139-	=139.	=139.	=139.	=139.	=139.
1D]	.	0f]yy	.	0d]	.	1r	.
1D	a-	.	.	.	.	[1a	Et
=140.	=140.	=140-	=140.	=140.	=140.	=140.	=140.
1.F	-scen-	0f	-mi	1r	.	1a]	.
.	.	.	.	[1A	Et	1a	a-
2G\	.	.	.	.	.	.	.
=141	=141	=141	=141	=141	=141	=141	=141
!	!	!LO:N:vis=0	!	!	!	!	!
1A	-dit	[y0e	Bau-	2A/]	.	1.cc	-scen-
.	.	.	.	2B\	a-	.	.
1A	in	.	.	[1c	-scen-	.	.
.	.	.	.	.	.	4b\	.
.	.	.	.	.	.	4a/	.
=142.	=142.	=142-	=142.	=142.	=142.	=142.	=142.
1.c	ce-	0e]yy	.	2c\]	.	1g	-dit
.	.	.	.	2d\	-dit	.	.
.	.	.	.	2.e\	in	1a	in
4B\	.	.	.	.	.	.	.
4A\	.	.	.	4f\	.	.	.
=143.	=143.	=143-	=143.	=143.	=143.	=143.	=143.
1G	.	0e	-di-	1g	ce-	1b	ce-
1A	-lum;	.	.	1c	-lum;	1cc	.
=144	=144	=144	=144	=144	=144	=144	=144
!	!	!LO:N:vis=0.	!	!	!	!	!
1.B-	se-	[y0d	-chon,	1r	.	1.dd	.
.	.	.	.	1G	se-	.	.
4A\	.	.	.	.	.	4cc\	.
4G\	.	.	.	.	.	4b\	.
=145.	=145.	=145-	=145.	=145.	=145.	=145.	=145.
1F	.	0d_yy	.	1A	.	1a	.
1G	.	.	.	[1B	.	1g	-lum;
=146.	=146.	=146-	=146.	=146.	=146.	=146.	=146.
2D\	.	0d]yy	.	2B\]	.	1r	.
1G	.	.	.	2G/	.	.	.
.	.	.	.	1A	.	1a	se-
2F#i\	.	.	.	.	.	.	.
=147	=147	=147	=147	=147	=147	=147	=147
!	!	!LO:N:vis=0.	!	!	!	!	!
1.G	-det	0r	.	0G	-det...	2b\	-det
.	.	.	.	.	.	2cc\	ad
.	.	.	.	.	.	[1dd	dex-
2A\	ad	.	.	.	.	.	.
=148.	=148.	=148-	=148.	=148.	=148.	=148.	=148.
2B\	dex-	0ryy	.	0r	.	2dd\]	.
2c\	-te-	.	.	.	.	2cc\	-te-
1d	-ram	.	.	.	.	2a/	-ram
.	.	.	.	.	.	2b\	.
=149.	=149.	=149-	=149.	=149.	=149.	=149.	=149.
2A\	pa-	0ryy	.	0r	.	2cc\	pa-
2c\	.	.	.	.	.	1a	.
1B	.	.	.	.	.	.	.
.	.	.	.	.	.	2g#i/	.
=150	=150	=150	=150	=150	=150	=150	=150
!	!	!LO:N:vis=0	!	!	!	!	!
0A	-tris.	[y0e	L'a-	0c	Et	[0a	-tris.
=151.	=151.	=151-	=151.	=151.	=151.	=151.	=151.
1r	.	0e]yy	.	1A	i-	0a]	.
1A	Et	.	.	1A	-te-	.	.
=152.	=152.	=152-	=152.	=152.	=152.	=152.	=152.
1G	i-	0e	-mi	1B	-rum	1r	.
1A	-te-	.	.	1c	ven-	[1a	Et
=153	=153	=153	=153	=153	=153	=153	=153
!	!	!LO:N:vis=0	!	!	!	!	!
1D	-rum	[y0d	Bau-	1d	-tu-	1a]	.
1G	ven-	.	.	2G/	.	1b	i-
.	.	.	.	[2d\	.	.	.
=154.	=154.	=154-	=154.	=154.	=154.	=154.	=154.
1F	-tu-	0d]yy	.	2d\]	.	1a	-te-
.	.	.	.	2c\	.	.	.
1G	-rus	.	.	2B\	.	2g/	-rum
.	.	.	.	2G/	.	[2dd\	ven-
=155.	=155.	=155-	=155.	=155.	=155.	=155.	=155.
1D	est	0d	-di-	1A	-rus	4dd\]	.
.	.	.	.	.	.	4cc\	.
.	.	.	.	.	.	2a/	.
1G	cum	.	.	1G	est	1b	-tu-
=156	=156	=156	=156	=156	=156	=156	=156
!	!	!LO:N:vis=0.	!	!	!	!	!
2A\	glo-	[y0c	-chon,	1r	.	2cc\	-rus
1F	.	.	.	.	.	1a	est
.	.	.	.	2.A/	cum	.	.
4E\	-ri-	.	.	.	.	4g/	.
4D\	.	.	.	4B\	.	4f/	.
=157.	=157.	=157-	=157.	=157.	=157.	=157.	=157.
1C	-a	0c_yy	.	1.c	glo-	1e	.
1F	.	.	.	.	.	1a	cum
.	.	.	.	2F/	-ri-	.	.
=158.	=158.	=158-	=158.	=158.	=158.	=158.	=158.
2E\	ju-	0c]yy	.	2G/	-a	2g/	glo-
1F	.	.	.	2F/	ju-	1a	.
.	.	.	.	2.A/	-di-	.	.
4E\	-di-	.	.	.	.	4g/	-ri-
4D\	.	.	.	4B\	.	4f/	.
=159	=159	=159	=159	=159	=159	=159	=159
!	!	!LO:N:vis=0.	!	!	!	!	!
1C	-ca-	0r	.	1.c	-ca-	0e	-a...
1C	-re-	.	.	.	.	.	.
.	.	.	.	4B\	-re	.	.
.	.	.	.	4A/	.	.	.
=160.	=160.	=160-	=160.	=160.	=160.	=160.	=160.
1G	vi-	0ryy	.	1B	vi-	0r	.
2A\	-vos	.	.	2c\	-vos	.	.
[2B\	et	.	.	[2d\	et	.	.
=161.	=161.	=161-	=161.	=161.	=161.	=161.	=161.
4B\]	.	0ryy	.	2d\]	.	0r	.
4A\	.	.	.	.	.	.	.
1G	mor-	.	.	2B\	mor-	.	.
.	.	.	.	1A	-tu-	.	.
2F#i\	-tu-	.	.	.	.	.	.
=162	=162	=162	=162	=162	=162	=162	=162
!	!	!LO:N:vis=0	!	!	!	!	!
[0G	-os;	[y0d	L'a-	0G	-os;	0r	.
=163.	=163.	=163-	=163.	=163.	=163.	=163.	=163.
0G]	.	0d]yy	.	0r	.	1r	.
.	.	.	.	.	.	1g	cu-
=164.	=164.	=164-	=164.	=164.	=164.	=164.	=164.
0r	.	0d	-mi	1r	.	1a	-jus
.	.	.	.	1G	cu-	1b	re-
=165	=165	=165	=165	=165	=165	=165	=165
!	!	!LO:N:vis=0	!	!	!	!	!
1r	.	[y0c	Bau-	2A/	-jus	0cc	-gni
.	.	.	.	2B\	.	.	.
[1C	cu-	.	.	[1c	re-	.	.
=166.	=166.	=166-	=166.	=166.	=166.	=166.	=166.
1C]	.	0c]yy	.	1c]	.	1g	non
1F	-jus	.	.	1F	.	1a	e-
=167.	=167.	=167-	=167.	=167.	=167.	=167.	=167.
1E	re-	0c	-di-	[0G	-gni	2g/	-rit
.	.	.	.	.	.	1g	fi-
1C	-gni	.	.	.	.	.	.
.	.	.	.	.	.	4f/	.
.	.	.	.	.	.	4e/	.
=168	=168	=168	=168	=168	=168	=168	=168
!	!	!LO:N:vis=0.	!	!	!	!	!
1r	.	[y0B	-chon,	0G]	.	[0d	-nis.
[1G	non	.	.	.	.	.	.
=169.	=169.	=169-	=169.	=169.	=169.	=169.	=169.
1G]	.	0B_yy	.	0r	.	0d_	.
1G	e-	.	.	.	.	.	.
=170.	=170.	=170-	=170.	=170.	=170.	=170.	=170.
1.G	-rit	0B]yy	.	1r	.	0d]	.
.	.	.	.	[1g	non	.	.
2F\	.	.	.	.	.	.	.
=171	=171	=171	=171	=171	=171	=171	=171
!	!	!LO:N:vis=0.	!	!	!	!	!
2E\	.	0r	.	2g\]	.	0r	.
2D\	.	.	.	2f\	.	.	.
[1G	fi-	.	.	2e\	e-	.	.
.	.	.	.	2d\	-rit	.	.
=172.	=172.	=172-	=172.	=172.	=172.	=172.	=172.
2G\]	.	0ryy	.	1g	fi-	0r	.
2E\	.	.	.	.	.	.	.
2F\	.	.	.	2f\	.	.	.
[2G\	.	.	.	[2e\	.	.	.
=173.	=173.	=173-	=173.	=173.	=173.	=173.	=173.
2G\]	.	0ryy	.	2e\]	.	0r	.
4F\	.	.	.	4d\	.	.	.
4E\	.	.	.	4c\	.	.	.
1D	.	.	.	2.B\	.	.	.
.	.	.	.	4A/	.	.	.
=174	=174	=174	=174	=174	=174	=174	=174
!	!	!LO:N:vis=0	!	!	!	!	!
[0C	-nis.	[y0c	L'a-	[0c	-nis.	1r	.
.	.	.	.	.	.	[1g	Et
=175.	=175.	=175-	=175.	=175.	=175.	=175.	=175.
0C_	.	0c]yy	.	0c]	.	1g]	.
.	.	.	.	.	.	1g	in
=176.	=176.	=176-	=176.	=176.	=176.	=176.	=176.
0C]	.	0c	-mi	0e	.	1g	spi-
.	.	.	.	.	.	1a	-ri-
=177	=177	=177	=177	=177	=177	=177	=177
!	!	!LO:N:vis=0	!	!	!	!	!
1r	.	[y0B	Bau-	0d	.	1b	-tum
[1G	Et	.	.	.	.	1g	.
=178.	=178.	=178-	=178.	=178.	=178.	=178.	=178.
1G]	.	0B]yy	.	0G	.	1r	.
1G	in	.	.	.	.	[1dd	sanc-
=179.	=179.	=179-	=179.	=179.	=179.	=179.	=179.
1G	spi-	0B	-di-	0r	.	1dd]	.
1G	-ri-	.	.	.	.	1dd	-tum
=180	=180	=180	=180	=180	=180	=180	=180
!	!	!LO:N:vis=0.	!	!	!	!	!
1A	-tum	[y0A	-chon,	0r	.	2.cc\	do-
.	.	.	.	.	.	4b\	.
[1F	sanc-	.	.	.	.	2cc\	.
.	.	.	.	.	.	[2a/	.
=181.	=181.	=181-	=181.	=181.	=181.	=181.	=181.
2F\]	.	0A_yy	.	0c	Et	2a/]	.
2G\	.	.	.	.	.	4g/	.
.	.	.	.	.	.	4f/	.
1A	-tum,	.	.	.	.	[1e	.
=182.	=182.	=182-	=182.	=182.	=182.	=182.	=182.
0r	.	0A]yy	.	1c	in	2e/]	.
.	.	.	.	.	.	2f/	.
.	.	.	.	[1c	spi-	2g/	.
.	.	.	.	.	.	[2a/	.
=183	=183	=183	=183	=183	=183	=183	=183
!	!	!LO:N:vis=0.	!	!	!	!	!
0r	.	0r	.	2c\]	.	2a/]	.
.	.	.	.	2c\	-ri-	4g/	-mi-
.	.	.	.	.	.	4f/	.
.	.	.	.	1c	-tum	1e	-num
=184.	=184.	=184-	=184.	=184.	=184.	=184.	=184.
1A	do-	0ryy	.	1c	sanc-	0r	.
1B	.	.	.	1d	-tum	.	.
=185.	=185.	=185-	=185.	=185.	=185.	=185.	=185.
2A\	.	0ryy	.	2c\	do-	0r	.
1G	.	.	.	2B\	-mi-	.	.
.	.	.	.	1A	-num	.	.
2F#i\	-mi-	.	.	.	.	.	.
=186	=186	=186	=186	=186	=186	=186	=186
!	!	!LO:N:vis=0	!	!	!	!	!
[0G	-num	[y0B	L'a-	1G	et	0dd	et
.	.	.	.	[1d	vi-	.	.
=187.	=187.	=187-	=187.	=187.	=187.	=187.	=187.
0G]	.	0B]yy	.	2d\]	.	1g	vi-
.	.	.	.	2e\	-vi-	.	.
.	.	.	.	2d\	-fi-	[1dd	-vi-
.	.	.	.	[2g\	-can-	.	.
=188.	=188.	=188-	=188.	=188.	=188.	=188.	=188.
1r	.	0B	-mi	2g\]	.	1dd]	.
.	.	.	.	4f\	.	.	.
.	.	.	.	4e\	.	.	.
1G	et	.	.	1d	.	1b	-fi-
=189	=189	=189	=189	=189	=189	=189	=189
!	!	!LO:N:vis=0	!	!	!	!	!
1A	vi-	[y0A	Bau-	0c	-tem;	1.cc	-can-
[1F	-vi-	.	.	.	.	.	.
.	.	.	.	.	.	[2a/	.
=190.	=190.	=190-	=190.	=190.	=190.	=190.	=190.
2F\]	.	0A]yy	.	0r	.	2a/]	.
4E\	-fi-	.	.	.	.	4g/	.
4D\	.	.	.	.	.	4f/	.
2C/	-can-	.	.	.	.	2e/	.
[2F\	.	.	.	.	.	[2a/	.
=191.	=191.	=191-	=191.	=191.	=191.	=191.	=191.
2F\]	.	0A	-di-	0r	.	4a/]	.
.	.	.	.	.	.	4g/	.
2G\	.	.	.	.	.	1g	.
1D	.	.	.	.	.	.	.
.	.	.	.	.	.	2f#i/	.
=192	=192	=192	=192	=192	=192	=192	=192
!	!	!LO:N:vis=0.	!	!	!	!	!
0G	-tem;	[y0G	-chon,	1r	.	[0g	-tem;
.	.	.	.	1d	qui	.	.
=193.	=193.	=193-	=193.	=193.	=193.	=193.	=193.
0r	.	0G_yy	.	1d	ex	0g]	.
.	.	.	.	1d	pa-	.	.
=194.	=194.	=194-	=194.	=194.	=194.	=194.	=194.
1d	qui	0G]yy	.	1B	-tre	0r	.
2e\	ex	.	.	1G	fi-	.	.
[2d\	pa-	.	.	.	.	.	.
=195	=195	=195	=195	=195	=195	=195	=195
!	!	!LO:N:vis=0.	!	!	!	!	!
2d\]	.	0r	.	1d	-li-	0r	.
2B\	-tre	.	.	.	.	.	.
2c\	fi-	.	.	2e\	-o-	.	.
2d\	-li-	.	.	[2d\	.	.	.
=196.	=196.	=196-	=196.	=196.	=196.	=196.	=196.
2.B\	-o-	0ryy	.	2d\]	.	0r	.
.	.	.	.	2B\	-que	.	.
4G\	.	.	.	.	.	.	.
2A\	-que	.	.	2c\	pro-	.	.
[2B\	pro-	.	.	[2d\	-ce-	.	.
=197.	=197.	=197-	=197.	=197.	=197.	=197.	=197.
2B\]	.	0ryy	.	2d\]	.	0r	.
1G	-ce-	.	.	2B\	.	.	.
.	.	.	.	1A	.	.	.
2F#i\	.	.	.	.	.	.	.
=198	=198	=198	=198	=198	=198	=198	=198
!	!	!LO:N:vis=0	!	!	!	!	!
[0G	-dit...	[y0g	L'a-	0G	-dit.	1r	.
.	.	.	.	.	.	1g	Qui
=199.	=199.	=199-	=199.	=199.	=199.	=199.	=199.
0G]	.	0g]yy	.	1r	.	1.b	cum
.	.	.	.	1G	Qui	.	.
.	.	.	.	.	.	2cc\	.
=200.	=200.	=200-	=200.	=200.	=200.	=200.	=200.
0r	.	0g	-mi	1B	cum	2dd\	pa-
.	.	.	.	.	.	1dd	.
.	.	.	.	1c	pa-	.	.
.	.	.	.	.	.	4cc\	.
.	.	.	.	.	.	4b\	.
=201	=201	=201	=201	=201	=201	=201	=201
!	!	!LO:N:vis=0	!	!	!	!	!
0r	.	[y0f	Bau-	0d	-tre	[0a	-tre...
=202.	=202.	=202-	=202.	=202.	=202.	=202.	=202.
0r	.	0f]yy	.	1r	.	0a]	.
.	.	.	.	1d	et	.	.
=203.	=203.	=203-	=203.	=203.	=203.	=203.	=203.
0r	.	0f	-di-	1d	fi-	1r	.
.	.	.	.	1d	-li-	1a	si-
=204	=204	=204	=204	=204	=204	=204	=204
!	!	!LO:N:vis=0.	!	!	!	!	!
1r	.	[y0e	-chon,	0A	-o...	1cc	-mul
1A	si-	.	.	.	.	1cc	ad-
=205.	=205.	=205-	=205.	=205.	=205.	=205.	=205.
1A	-mul	0e_yy	.	0r	.	1cc	-o-
2G\	ad-	.	.	.	.	2b\	.
[2A\	-o-	.	.	.	.	[2cc\	-ra-
=206.	=206.	=206-	=206.	=206.	=206.	=206.	=206.
2A\]	.	0e]yy	.	1r	.	2cc\]	.
4G\	.	.	.	.	.	4b\	.
4F\	.	.	.	.	.	4a/	.
1E	-ra-	.	.	1e	et	1g	-tur
=207	=207	=207	=207	=207	=207	=207	=207
!	!	!LO:N:vis=0.	!	!	!	!	!
1D	-tur...	0r	.	1f	con-	1a	et
1r	.	.	.	1e	.	1g	con-
=208.	=208.	=208-	=208.	=208.	=208.	=208.	=208.
0r	.	0ryy	.	2c\	-glo-	2e/	.
.	.	.	.	2d\	-ri-	2f/	.
.	.	.	.	1e	-fi-	1g	.
=209.	=209.	=209-	=209.	=209.	=209.	=209.	=209.
0r	.	0ryy	.	2f\	-ca-	2a/	-ca-
.	.	.	.	1d	.	4g/	.
.	.	.	.	.	.	4f/	.
.	.	.	.	.	.	1e	.
.	.	.	.	2c#i\	.	.	.
=210	=210	=210	=210	=210	=210	=210	=210
!	!	!LO:N:vis=0	!	!	!	!	!
0D	qui	[y0f	L'a-	[0d	-tur;	1d	-tur;
.	.	.	.	.	.	[1a	qui
=211.	=211.	=211-	=211.	=211.	=211.	=211.	=211.
1D	lo-	0f]yy	.	0d_	.	1a]	.
[1D	-cu-	.	.	.	.	1a	lo-
=212.	=212.	=212-	=212.	=212.	=212.	=212.	=212.
1D]	.	0f	-mi	0d]	.	1a	-cu-
1D	-tus	.	.	.	.	1a	-tus
=213	=213	=213	=213	=213	=213	=213	=213
!	!	!LO:N:vis=0	!	!	!	!	!
1A	est	[y0e	Bau-	0r	.	1cc	est
2G\	.	.	.	.	.	2b\	.
[2A\	.	.	.	.	.	[2cc\	.
=214.	=214.	=214-	=214.	=214.	=214.	=214.	=214.
2A\]	.	0e]yy	.	1A	qui	2cc\]	.
4G\	.	.	.	.	.	4b\	.
4F\	.	.	.	.	.	4a/	.
1E	.	.	.	1B	lo-	1g	.
=215.	=215.	=215-	=215.	=215.	=215.	=215.	=215.
1E	per	0e	-di-	2G/	-cu-	1b	per
.	.	.	.	2B\	.	.	.
1A	pro-	.	.	[1A	-tus	1cc	pro-
=216	=216	=216	=216	=216	=216	=216	=216
!	!	!LO:N:vis=0.	!	!	!	!	!
2D\	.	[y0d	-chon,	2A/]	.	2.dd\	-phe-
1G	-phe-	.	.	2G/	est	.	.
.	.	.	.	.	.	4cc\	.
.	.	.	.	[1d	per	2b\	.
2F\	.	.	.	.	.	[2a/	.
=217.	=217.	=217-	=217.	=217.	=217.	=217.	=217.
1G	.	0d_yy	.	2d\]	.	2a/]	.
.	.	.	.	2B\	pro-	1g	.
1D	.	.	.	1A	-phe-	.	.
.	.	.	.	.	.	2f#i/	.
=218.	=218.	=218-	=218.	=218.	=218.	=218.	=218.
0G	-tas.	0d]yy	.	0G	-tas.	0g	-tas.
=219	=219	=219	=219	=219	=219	=219	=219
!	!	!LO:N:vis=0.	!	!	!	!	!
1G	Et	0r	.	1B	Et	0r	.
1E	u-	.	.	1c	u-	.	.
=220.	=220.	=220-	=220.	=220.	=220.	=220.	=220.
2D\	-nam	0ryy	.	1d	-nam	0r	.
1G	sanc-	.	.	.	.	.	.
.	.	.	.	1d	sanc-	.	.
4F\	.	.	.	.	.	.	.
4E\	.	.	.	.	.	.	.
=221.	=221.	=221-	=221.	=221.	=221.	=221.	=221.
1D	-tam	0ryy	.	1d	-tam	0r	.
[1A	ca-	.	.	1e	ca-	.	.
=222	=222	=222	=222	=222	=222	=222	=222
!	!	!LO:N:vis=0	!	!	!	!	!
1A]	.	[y0e	L'a-	2c\	-tho-	1r	.
.	.	.	.	2A/	.	.	.
1E	.	.	.	1B	-li-	1g	Et
=223.	=223.	=223-	=223.	=223.	=223.	=223.	=223.
1A	-tho-	0e]yy	.	1A	-cam,	1a	u-
2G\	.	.	.	1r	.	2b\	-nam
[2A\	.	.	.	.	.	[2cc\	sanc-
=224.	=224.	=224-	=224.	=224.	=224.	=224.	=224.
2A\]	.	0e	-mi	0r	.	2cc\]	.
2B\	-li-	.	.	.	.	4b\	.
.	.	.	.	.	.	4a/	.
1c	-cam	.	.	.	.	1g	.
=225	=225	=225	=225	=225	=225	=225	=225
!	!	!LO:N:vis=0	!	!	!	!	!
0r	.	[y0d	Bau-	1d	ca-	1f	-tam
.	.	.	.	1f	-tho-	1d	ca-
=226.	=226.	=226-	=226.	=226.	=226.	=226.	=226.
0D	et	0d]yy	.	1d	-li-	1f	-tho-
.	.	.	.	[1f	-cam	1d	-li-
=227.	=227.	=227-	=227.	=227.	=227.	=227.	=227.
1D	a-	0d	-di-	2f\]	.	1.f	-cam
.	.	.	.	2g\	.	.	.
1D	-pos-	.	.	1a	.	.	.
.	.	.	.	.	.	2g/	.
=228	=228	=228	=228	=228	=228	=228	=228
!	!	!LO:N:vis=0.	!	!	!	!	!
1.F	-to-	[y0c	-chon,	1r	.	1.a	.
.	.	.	.	[1A	et	.	.
2G\	.	.	.	.	.	4g/	et
.	.	.	.	.	.	4f/	.
=229.	=229.	=229-	=229.	=229.	=229.	=229.	=229.
1.A	.	0c_yy	.	2A/]	.	1e	a-
.	.	.	.	2B\	a-	.	.
.	.	.	.	2.c\	-pos-	1a	-pos-
4G\	.	.	.	.	.	.	.
4F\	.	.	.	4d\	.	.	.
=230.	=230.	=230-	=230.	=230.	=230.	=230.	=230.
1E	.	0c]yy	.	1e	-to-	1g	-to-
1F	-li-	.	.	1A	-li-	1a	-li-
=231	=231	=231	=231	=231	=231	=231	=231
!	!	!LO:N:vis=0.	!	!	!	!	!
1G	-cam	0r	.	1B	-cam	1d	-cam
1A	ec-	.	.	1c	ec-	2r	.
.	.	.	.	.	.	[2a/	ec-
=232.	=232.	=232-	=232.	=232.	=232.	=232.	=232.
1D	-cle-	0ryy	.	1d	-cle-	2a/]	.
.	.	.	.	.	.	2f/	.
2C/	.	.	.	2e\	.	2g/	-cle-
[2F\	.	.	.	[2f\	.	[2a/	.
=233.	=233.	=233-	=233.	=233.	=233.	=233.	=233.
2F\]	.	0ryy	.	2f\]	.	2a/]	.
2G\	.	.	.	4e\	.	4g/	.
.	.	.	.	4d\	.	4f/	.
1A	.	.	.	1c	.	1e	-si-
=234	=234	=234	=234	=234	=234	=234	=234
!	!	!LO:N:vis=0	!	!	!	!	!
1.B-	.	[y0d	L'a-	1.d	.	0d	-am.
4A\	.	.	.	4c\	.	.	.
4G\	.	.	.	4B\	.	.	.
=235.	=235.	=235-	=235.	=235.	=235.	=235.	=235.
2F\	.	0d]yy	.	2A/	.	1r	.
2G\	-si-	.	.	2G/	.	.	.
1D	-am.	.	.	1A	-si-	1a	Con-
=236.	=236.	=236-	=236.	=236.	=236.	=236.	=236.
1r	.	0d	-mi	0G	-am.	1b	-fi-
1G	Con-	.	.	.	.	1b	-te-
=237	=237	=237	=237	=237	=237	=237	=237
!	!	!LO:N:vis=0	!	!	!	!	!
1.A	-fi-	[y0c	Bau-	0e	Con-	1.cc	-or
2G\	.	.	.	.	.	2b\	.
=238.	=238.	=238-	=238.	=238.	=238.	=238.	=238.
1.F	-te-	0c]yy	.	1f	-fi-	1.a	.
.	.	.	.	1f	-te-	.	.
4E\	.	.	.	.	.	4g/	.
4D\	.	.	.	.	.	4f/	.
=239.	=239.	=239-	=239.	=239.	=239.	=239.	=239.
0C	-or	0c	-di-	0g	-or	1.e	.
.	.	.	.	.	.	[2g/	u-
=240	=240	=240	=240	=240	=240	=240	=240
!	!	!LO:N:vis=0.	!	!	!	!	!
1r	.	[y0B	-chon,	0G	.	2g/]	.
.	.	.	.	.	.	2f/	.
1G	u-	.	.	.	.	2d/	-num
.	.	.	.	.	.	[2g/	bap-
=241.	=241.	=241-	=241.	=241.	=241.	=241.	=241.
2E\	-num	0B_yy	.	0r	.	2g/]	.
2F\	bap-	.	.	.	.	2a/	.
1G	-tis-	.	.	.	.	2b\	-tis-
.	.	.	.	.	.	[2g/	.
=242.	=242.	=242-	=242.	=242.	=242.	=242.	=242.
2E\	.	0B]yy	.	1r	.	2g/]	.
2F\	.	.	.	.	.	4f/	.
.	.	.	.	.	.	4e/	.
1G	.	.	.	1d	u-	1d	.
=243	=243	=243	=243	=243	=243	=243	=243
!	!	!LO:N:vis=0.	!	!	!	!	!
0C	-ma	0r	.	1e	-num	1c	-ma,
.	.	.	.	2f\	bap-	1r	.
.	.	.	.	[2g\	-tis-	.	.
=244.	=244.	=244-	=244.	=244.	=244.	=244.	=244.
0r	.	0ryy	.	2g\]	.	1e	bap-
.	.	.	.	4f\	.	.	.
.	.	.	.	4e\	.	.	.
.	.	.	.	2d\	.	2f/	.
.	.	.	.	[2e\	.	[2g/	-tis-
=245.	=245.	=245-	=245.	=245.	=245.	=245.	=245.
0r	.	0ryy	.	2e\]	.	2g/]	.
.	.	.	.	4d\	.	4f/	.
.	.	.	.	4c\	.	4e/	.
.	.	.	.	2.B\	.	1d	.
.	.	.	.	4A/	.	.	.
=246	=246	=246	=246	=246	=246	=246	=246
!	!	!LO:N:vis=0	!	!	!	!	!
1C	in	[y0c	L'a-	1.c	-ma	0c	-ma
1F	re-	.	.	.	.	.	.
.	.	.	.	4B\	.	.	.
.	.	.	.	4A/	.	.	.
=247.	=247.	=247-	=247.	=247.	=247.	=247.	=247.
1E	-mis-	0c]yy	.	1G	.	1g	in
1F	-si-	.	.	1c	.	1a	re-
=248.	=248.	=248-	=248.	=248.	=248.	=248.	=248.
0C	-o-	0c	-mi	1e	in	1g	-mis-
.	.	.	.	1e	re-	2e/	-si-
.	.	.	.	.	.	[2g/	-o-
=249	=249	=249	=249	=249	=249	=249	=249
!	!	!LO:N:vis=0	!	!	!	!	!
[0G	-nem,	[y0B	Bau-	1.d	-mis-	2g/]	.
.	.	.	.	.	.	4f/	.
.	.	.	.	.	.	4e/	.
.	.	.	.	.	.	1d	-nem
.	.	.	.	2G/	-si-	.	.
=250.	=250.	=250-	=250.	=250.	=250.	=250.	=250.
0G]	.	0B]yy	.	1d	-o-	1r	.
.	.	.	.	2e\	.	[1g	pec-
.	.	.	.	[2g\	.	.	.
=251.	=251.	=251-	=251.	=251.	=251.	=251.	=251.
1r	.	0B	-di-	2g\]	.	2g/]	.
.	.	.	.	4f\	.	2a/	.
.	.	.	.	4e\	.	.	.
1G	pec-	.	.	1d	-nem	1b	-ca-
=252	=252	=252	=252	=252	=252	=252	=252
!	!	!LO:N:vis=0.	!	!	!	!	!
1A	-ca-	[y0A	-chon,	1c	pec-	2cc\	-to-
.	.	.	.	.	.	1a	.
2F\	.	.	.	2A/	-ca-	.	.
2G\	.	.	.	2B\	.	4g/	.
.	.	.	.	.	.	4f/	.
=253.	=253.	=253-	=253.	=253.	=253.	=253.	=253.
1A	-to-	0A_yy	.	1c	-to-	1e	-rum,
[1D	.	.	.	[1d	.	2r	.
.	.	.	.	.	.	2d/	re-
=254.	=254.	=254-	=254.	=254.	=254.	=254.	=254.
2D\]	.	0A]yy	.	2d\]	.	2f/	-mis-
2E\	.	.	.	4c\	.	2g/	-si-
.	.	.	.	4B\	.	.	-o-
1F	.	.	.	1A	-rum.	1a	.
=255	=255	=255	=255	=255	=255	=255	=255
!	!	!LO:N:vis=0.	!	!	!	!	!
1G	-rum,	0r	.	0r	.	1b	.
2A\	pec-	.	.	.	.	2cc\	-nem
[2B-\	.	.	.	.	.	[2dd\	pec-
=256.	=256.	=256-	=256.	=256.	=256.	=256.	=256.
2B-\]	.	0ryy	.	0r	.	2dd\]	.
4A\	.	.	.	.	.	4cc\	.
4G\	.	.	.	.	.	4b\	.
2F\	-ca-	.	.	.	.	2a/	-ca-
[2G\	-to-	.	.	.	.	[2b\	-to-
=257.	=257.	=257-	=257.	=257.	=257.	=257.	=257.
2G\]	.	0ryy	.	0r	.	4b\]	.
.	.	.	.	.	.	4a/	.
2B\-i	.	.	.	.	.	1g	.
1A	.	.	.	.	.	.	.
.	.	.	.	.	.	2f#i/	.
=258	=258	=258	=258	=258	=258	=258	=258
!	!	!LO:N:vis=0	!	!	!	!	!
[0G	-rum.	[y0B	L'a-	1d	Et	0g	-rum.
.	.	.	.	1d	ex-	.	.
=259.	=259.	=259-	=259.	=259.	=259.	=259.	=259.
0G]	.	0B]yy	.	1B	-spec-	1dd	Et
.	.	.	.	1G	-to	1dd	ex-
=260.	=260.	=260-	=260.	=260.	=260.	=260.	=260.
0G	Et	0B	-mi	1r	.	1b	-spec-
.	.	.	.	1d	re-	1g	-to
=261	=261	=261	=261	=261	=261	=261	=261
!	!	!LO:N:vis=0	!	!	!	!	!
1D	ex-	[y0A	Bau-	1d	-sur-	1r	.
[1F	-spec-	.	.	1c	.	[1a	re-
=262.	=262.	=262-	=262.	=262.	=262.	=262.	=262.
2F\]	.	0A]yy	.	1f	-rec-	1a]	.
2G\	.	.	.	.	.	.	.
1A	.	.	.	2e\	-ti-	1a	-sur-
.	.	.	.	[2a\	-o-	.	.
=263.	=263.	=263-	=263.	=263.	=263.	=263.	=263.
0D	-to...	0A	-di-	4a\]	.	1a	-rec-
.	.	.	.	4g\	.	.	.
.	.	.	.	4f#i\	.	.	.
.	.	.	.	4e\	.	.	.
.	.	.	.	1f#i	.	1a	-ti-
=264	=264	=264	=264	=264	=264	=264	=264
!	!	!LO:N:vis=0.	!	!	!	!	!
0r	.	[y0G	-chon,	1.g	-nem	1b	-o-
.	.	.	.	.	.	1g	-nem
.	.	.	.	2f\	mor-	.	.
=265.	=265.	=265-	=265.	=265.	=265.	=265.	=265.
0r	.	0G_yy	.	2e\	.	2.b\	mor-
.	.	.	.	4d\	.	.	.
.	.	.	.	4c\	.	4cc\	.
.	.	.	.	2B\	.	2dd\	-tu-
.	.	.	.	[2g\	.	[2ee\	-o-
=266.	=266.	=266-	=266.	=266.	=266.	=266.	=266.
0r	.	0G]yy	.	2g\]	.	4ee\]	.
.	.	.	.	.	.	4dd\	.
.	.	.	.	2e\	-tu-	1cc	.
.	.	.	.	1d	-o-	.	.
.	.	.	.	.	.	2b\	.
=267	=267	=267	=267	=267	=267	=267	=267
!	!	!LO:N:vis=0.	!	!	!	!	!
1.C	et	0r	.	0c	-rum.	1cc	-rum.
.	.	.	.	.	.	1r	.
2D\	.	.	.	.	.	.	.
=268.	=268.	=268-	=268.	=268.	=268.	=268.	=268.
1E	vi-	0ryy	.	0r	.	1.g	Et
1C	.	.	.	.	.	.	.
.	.	.	.	.	.	2f/	.
=269.	=269.	=269-	=269.	=269.	=269.	=269.	=269.
1c	.	0ryy	.	1.g	Et	1e	vi-
1B	.	.	.	.	.	1d	.
.	.	.	.	2f\	.	.	.
=270	=270	=270	=270	=270	=270	=270	=270
*	*	*rscale:1	*	*	*	*	*
1c	-tam,	[0gl	A-	1e	vi-	2e/	.
.	.	.	.	.	.	1c	.
1G	.	.	.	1d	.	.	.
.	.	.	.	.	.	2B/	.
=271.	=271.	=271-	=271.	=271.	=271.	=271.	=271.
1r	.	0g_	.	2e\	.	2c/	.
.	.	.	.	1c	.	2e/	.
1G	et	.	.	.	.	1d	.
.	.	.	.	2B\	.	.	.
=272.	=272.	=272-	=272.	=272.	=272.	=272.	=272.
1r	.	0g_	.	2c\	.	1c	-tam
.	.	.	.	2e\	.	.	.
1G	vi-	.	.	1d	.	1r	.
=273	=273	=273	=273	=273	=273	=273	=273
1c	.	0g_	.	1c	-tam	1e	ven-
1B	.	.	.	1r	.	2d/	.
.	.	.	.	.	.	[2g/	-tu-
=274.	=274.	=274-	=274.	=274.	=274.	=274.	=274.
1c	-tam,	0g_	.	1e	ven-	2g/]	.
.	.	.	.	.	.	2c/	.
1G	.	.	.	2d\	-tu-	2d/	.
.	.	.	.	[2g\	.	2B/	.
=275.	=275.	=275-	=275.	=275.	=275.	=275.	=275.
2r	.	0g_	.	2g\]	.	1c	-ri
2C/	et	.	.	2c\	.	.	.
1G	vi-	.	.	2d\	.	1r	.
.	.	.	.	2B\	.	.	.
=276	=276	=276	=276	=276	=276	=276	=276
1C	-tam,	0g_	.	1c	-ri	1ee	se-
1G	.	.	.	1r	.	2dd\	.
.	.	.	.	.	.	[2ee\	.
=277.	=277.	=277-	=277.	=277.	=277.	=277.	=277.
2r	.	0g_	.	1e	se-	2ee\]	.
2C/	ven-	.	.	.	.	2cc\	.
1G	-tu-	.	.	2d\	.	2dd\	.
.	.	.	.	[2e\	.	2b\	-cu-
=278.	=278.	=278-	=278.	=278.	=278.	=278.	=278.
1C	-ri	0g_	.	2e\]	.	1cc	-li.
.	.	.	.	2c\	.	.	.
1G	.	.	.	2d\	.	1r	.
.	.	.	.	2B\	-cu-	.	.
=279	=279	=279	=279	=279	=279	=279	=279
2r	.	0g_	.	1c	-li,	1ee	A-
2C/	se-	.	.	.	.	.	.
1G	-cu-	.	.	1r	.	2dd\	.
.	.	.	.	.	.	[2ee\	.
=280.	=280.	=280-	=280.	=280.	=280.	=280.	=280.
1C	-li	0g_	.	1e	A-	2ee\]	.
.	.	.	.	.	.	2cc\	.
1G	.	.	.	2d\	.	2dd\	.
.	.	.	.	[2e\	.	2b\	.
=281.	=281.	=281-	=281.	=281.	=281.	=281.	=281.
0c	A-	0g_	.	2e\]	.	2cc\	.
.	.	.	.	2c\	.	1ee	.
.	.	.	.	1e	.	.	.
.	.	.	.	.	.	4dd\	.
.	.	.	.	.	.	4cc\	.
=282	=282	=282	=282	=282	=282	=282	=282
!LO:N:vis=00.	!	!	!	!LO:N:vis=00.	!	!LO:N:vis=00.	!
0G;	.	0g_	.	0d;	.	0b;	.
=283.	=283.	=283-	=283.	=283.	=283.	=283.	=283.
0Cl	-men.	0g]	-men.	0cl	-men.	0ccl	-men.
==	==	==	==	==	==	==	==
*-	*-	*-	*-	*-	*-	*-	*-
!!!RDF**kern: l=long note in original notation
!!!RDF**kern: i=editorial accidental
!!!ENC: Jesse Rodin 2012/02/01
!!!END: 2012/02/01/
!!!EED: Jesse Rodin
!!!EEV: 2012/06/09/
!!attribution-level@Jos: 2 (provisionally attributable [parentheses checkmark])
!!!ONB: Translated from MusicXML and edited on 2012/06/09/ by Craig Sapp
!!muse2ps: T^@{OPR}^u^@{ONM}{. }@{OTL}^C^@{COM}\n@{SCT}^i2I150v90,90,90,120c115z18l2700t130
